images/quiz_check_mark_gray.svg

<svg width="38" height="38" viewBox="0 0 38 38" fill="none" xmlns="http://www.w3.org/2000/svg">
<rect x="2" y="2" width="34" height="34" rx="17" fill="white" stroke="#F9F9F9" stroke-width="4"/>
<path d="M23.8218 16.1059L22.9406 15.186C22.8218 15.062 22.6733 15 22.505 15C22.3366 15 22.1881 15.062 22.0693 15.186L19.7279 17.6303C18.6949 18.7086 16.9708 18.7064 15.9406 17.6253V17.6253C15.8218 17.5013 15.6733 17.4393 15.505 17.4393C15.3366 17.4393 15.1881 17.5013 15.0693 17.6253L14.1881 18.5452C14.0594 18.6693 14 18.8243 14 19C14 19.1757 14.0594 19.3307 14.1782 19.4548L16.5149 21.8941L17.396 22.814C17.5149 22.938 17.6634 23 17.8317 23C18 23 18.1485 22.938 18.2673 22.814L19.1485 21.8941L23.8218 17.0155C23.9406 16.8915 24 16.7364 24 16.5607C24 16.385 23.9406 16.23 23.8218 16.1059Z" fill="#AEAEAE"/>
</svg>

<svg width="38" height="38" fill="none" xmlns="http://www.w3.org/2000/svg"><rect x="2" y="2" width="34" height="34" rx="17" fill="#fff" stroke="#F9F9F9" stroke-width="4"/><path d="m23.822 16.106-.881-.92a.585.585 0 0 0-.436-.186.585.585 0 0 0-.436.186l-2.341 2.444a2.619 2.619 0 0 1-3.787-.005.585.585 0 0 0-.436-.186.585.585 0 0 0-.436.186l-.88.92A.608.608 0 0 0 14 19c0 .176.06.33.178.455l2.337 2.44.881.919a.586.586 0 0 0 .436.186.585.585 0 0 0 .435-.186l.881-.92 4.674-4.878A.639.639 0 0 0 24 16.56c0-.176-.06-.331-.178-.455Z" fill="#AEAEAE"/></svg>
